X: 2178
T: LADY HALL
C: J. Mc Kenzie
Q: "Strathspey."
R: Strathspey.
%R: strathspey
B: James Kerr "Merry Melodies" v.2 p.20 #178
Z: 2016 John Chambers <jc:trillian.mit.edu>
M: C
L: 1/8
%%slurgraces yes
%%graceslurs yes
K: G
D |\
G>AG>E D>EG>A | (B<e)d>B d>AB>A |\
G>AB>d e>fg>G | A>Bc>A (B<G)E2 |\
G>AG>E D>EG>A |
(B<e)d>A d<AB<d |\
{cd}e>dB>G A>Bd>B | G>AB>A (GE)G2 |[|\
g>dB>d G>AB>d | g>fe>f g>ab>a |
g>d(eg) G>A(Bd) | c>Ad>B A>G(Ed) |\
g>dB>d G>AB>d | g>fe>f g>ab>a |\
g>de>B G>AB>d | c>Ad>B (AG)E2 |]

%%sep 1 1 500
%%sep 1 1 500

